frontend/svgs/biz047.svg

<?xml version="1.0" encoding="UTF-8"?> <svg width="100px" height="100px" viewBox="0 0 100 100" version="1.1" xmlns="http://www.w3.org/2000/svg" xmlns:xlink="http://www.w3.org/1999/xlink"> <g id="47.-Delivery-car" stroke="none" stroke-width="1" fill="none" fill-rule="evenodd" stroke-linecap="round" stroke-linejoin="round"> <path d="M89.2727273,80.8181818 L95.3761444,80.8181818 C96.82853,80.8181818 98,79.6495953 98,78.2080708 L98,61.610111 C98,60.1730402 97.2631111,58.0897908 96.3541125,56.9669909 L81.9822805,39.2148272 C81.0728879,38.0915406 79.1637293,37.1818182 77.7171752,37.1818182 L63.0909091,37.1818182 L63.0909091,80.8181818 L71.8181818,80.8181818 C71.8181818,75.9982422 75.7255149,72.0909091 80.5454545,72.0909091 C85.3653942,72.0909091 89.2727273,75.9982422 89.2727273,80.8181818 L89.2727273,80.8181818 Z" id="Layer-2" stroke="#576574" stroke-width="4" fill="#576574"></path> <path d="M71.8181818,48.9121885 C71.8181818,47.2536235 73.1526762,45.9090909 74.8123151,45.9090909 L87.1582386,45.9090909 L98,58.8823864 L98,61.5806818 L74.8215693,61.5806818 C73.1628442,61.5806818 71.8181818,60.2445308 71.8181818,58.5775842 L71.8181818,48.9121885 Z" id="Layer-3" stroke="#6DAEFF" stroke-width="4" fill="#6DAEFF"></path> <path d="M11.6,80.8181818 L7.23498576,80.8181818 C4.33878705,80.8181818 2,78.4735243 2,75.5812426 L2,63.3636364 L63.0909091,63.3636364 L63.0909091,80.8181818 L29.0545455,80.8181818 C29.0545455,75.9982422 25.1472124,72.0909091 20.3272727,72.0909091 C15.5073331,72.0909091 11.6,75.9982422 11.6,80.8181818 L11.6,80.8181818 Z" id="Layer-4" stroke="#576574" stroke-width="4" fill="#576574"></path> <circle id="Layer-5" stroke="#485563" stroke-width="4" fill="#485563" cx="20.3272727" cy="80.8181818" r="8.72727273"></circle> <circle id="Layer-6" stroke="#485563" stroke-width="4" fill="#485563" cx="80.5454545" cy="80.8181818" r="8.72727273"></circle> <path d="M57.8559233,11 C60.7471261,11 63.0909091,13.3516833 63.0909091,16.2363971 L63.0909091,63.3636364 L2,63.3636364 L2,15.9971256 C2,13.2372893 4.24141221,11 7.00599677,11 L57.8559233,11 Z" id="Layer-1" stroke="#E46565" stroke-width="4" fill="#E46565"></path> </g> </svg>

<svg width="100" height="100" xmlns="http://www.w3.org/2000/svg"><g fill="none" fill-rule="evenodd" stroke-linecap="round" stroke-linejoin="round" stroke-width="4"><path d="M89.273 80.818h6.103A2.615 2.615 0 0098 78.208V61.61c0-1.437-.737-3.52-1.646-4.643L81.982 39.215c-.91-1.123-2.818-2.033-4.265-2.033H63.091v43.636h8.727a8.727 8.727 0 0117.455 0h0z" stroke="#576574" fill="#576574"/><path d="M71.818 48.912a2.995 2.995 0 012.994-3.003h12.346L98 58.882v2.699H74.822a2.998 2.998 0 01-3.004-3.003v-9.666z" stroke="#6DAEFF" fill="#6DAEFF"/><path d="M11.6 80.818H7.235A5.233 5.233 0 012 75.581V63.364h61.09v17.454H29.056a8.727 8.727 0 00-17.455 0h0z" stroke="#576574" fill="#576574"/><circle stroke="#485563" fill="#485563" cx="20.327" cy="80.818" r="8.727"/><circle stroke="#485563" fill="#485563" cx="80.545" cy="80.818" r="8.727"/><path d="M57.856 11a5.24 5.24 0 015.235 5.236v47.128H2V15.997A5.002 5.002 0 017.006 11h50.85z" stroke="#E46565" fill="#E46565"/></g></svg>
